flags/nc.svg

<svg width="512" height="512" viewBox="0 0 512 512" fill="none" xmlns="http://www.w3.org/2000/svg">
<rect y="136" width="512" height="240" fill="var(--flag-palette-bright-red, #d80027)"/>
<rect y="344" width="512" height="168" fill="var(--flag-palette-dark-green, #496e2d)"/>
<rect width="512" height="168" fill="var(--flag-palette-blue, #0052b4)"/>
<path d="M398 256C398 300.556 380.3 343.288 348.794 374.794C317.288 406.3 274.556 424 230 424C185.444 424 142.712 406.3 111.206 374.794C79.7 343.288 62 300.556 62 256C62 211.444 79.7 168.712 111.206 137.206C142.712 105.7 185.444 88 230 88C274.556 88 317.288 105.7 348.794 137.206C380.3 168.712 398 211.444 398 256Z" fill="var(--flag-palette-yellow, #ffda44)"/>
<path d="M230 80C183.322 80 138.556 98.5428 105.549 131.549C72.5428 164.556 54 209.322 54 256C54 302.678 72.5428 347.444 105.549 380.451C138.556 413.457 183.322 432 230 432C276.678 432 321.444 413.457 354.451 380.451C387.457 347.444 406 302.678 406 256C406 209.322 387.457 164.556 354.451 131.549C321.444 98.5428 276.678 80 230 80ZM222 96V130C214 134 208 138 207 146L206 162L212 159L222 155V163C217.26 164.675 213.166 167.796 210.295 171.923C207.425 176.05 205.922 180.974 206 186C206.128 190.855 207.725 195.558 210.582 199.486C213.439 203.414 217.42 206.383 222 208V216H202V232H222V240C217.42 241.617 213.439 244.586 210.582 248.514C207.725 252.442 206.128 257.145 206 262C205.922 267.026 207.425 271.95 210.295 276.077C213.166 280.204 217.26 283.325 222 285V292H202V309H222V316C217.26 317.675 213.166 320.796 210.295 324.923C207.425 329.05 205.922 333.974 206 339C206.128 343.855 207.725 348.558 210.582 352.486C213.439 356.414 217.42 359.383 222 361V369C212 369 204 372 199 376C192 381 177 396 169 404C135.233 390.24 107.18 365.36 89.484 333.479C71.7884 301.599 65.5127 264.63 71.6962 228.696C77.8797 192.762 96.1514 160.017 123.486 135.885C150.82 111.753 185.576 97.6815 222 96ZM238 96C274.695 97.5879 309.726 111.752 337.213 136.115C364.699 160.478 382.966 193.556 388.947 229.795C394.928 266.034 388.259 303.228 370.06 335.131C351.86 367.034 323.238 391.705 289 405L259 376C254 372 247 370 238 369V361C242.58 359.383 246.561 356.414 249.418 352.486C252.275 348.558 253.872 343.855 254 339C254.078 333.974 252.575 329.05 249.705 324.923C246.834 320.796 242.74 317.675 238 316V309H259V293H238V285C242.74 283.325 246.834 280.204 249.705 276.077C252.575 271.95 254.078 267.026 254 262C253.872 257.145 252.275 252.442 249.418 248.514C246.561 244.586 242.58 241.617 238 240V232H259V216H238V209C242.74 207.325 246.834 204.204 249.705 200.077C252.575 195.95 254.078 191.026 254 186C254.078 180.974 252.575 176.05 249.705 171.923C246.834 167.796 242.74 164.675 238 163V143C244 138 249 130 255 120C259 112 257 109 257 109L255 112L238 123V96Z" fill="var(--flag-palette-black, #333333)"/>
</svg>

<svg xmlns="http://www.w3.org/2000/svg" width="512" height="512" fill="none"><path fill="var(--flag-palette-bright-red, #d80027)" d="M0 136h512v240H0z"/><path fill="var(--flag-palette-dark-green, #496e2d)" d="M0 344h512v168H0z"/><path fill="var(--flag-palette-blue, #0052b4)" d="M0 0h512v168H0z"/><path fill="var(--flag-palette-yellow, #ffda44)" d="M398 256a168 168 0 1 1-336 0 168 168 0 0 1 336 0"/><path fill="var(--flag-palette-black, #333333)" d="M230 80a176 176 0 1 0 0 352 176 176 0 0 0 0-352m-8 16v34c-8 4-14 8-15 16l-1 16 6-3 10-4v8a24 24 0 0 0-16 23 24 24 0 0 0 16 22v8h-20v16h20v8a24 24 0 0 0-16 22 24 24 0 0 0 16 23v7h-20v17h20v7a24 24 0 0 0-16 23 24 24 0 0 0 16 22v8c-10 0-18 3-23 7-7 5-22 20-30 28a160 160 0 0 1 53-308m16 0a160 160 0 0 1 51 309l-30-29c-5-4-12-6-21-7v-8a24 24 0 0 0 16-22 24 24 0 0 0-16-23v-7h21v-16h-21v-8a24 24 0 0 0 16-23 24 24 0 0 0-16-22v-8h21v-16h-21v-7a24 24 0 0 0 16-23 24 24 0 0 0-16-23v-20c6-5 11-13 17-23 4-8 2-11 2-11l-2 3-17 11z"/></svg>
